X: 1
T: String Quartet in E\b Major opus 76 no 6 mvt 1
C: Franz Joseph Haydn
%%abc-version 2.0
%%abcx-abcm2ps-target-version 5.9.1 (29 Sep 2008)
%%abc-creator hum2abc beta
%%abcx-conversion-date 2021/02/14 14:38:33
%%abc-copyright Copyright (c) 1994, 2000 Center for Computer Assisted Research in the Humanities
%%abc-edited-by Frances Bennion
%%abcx-initial-encoding-date 1997/04/15
%%gracespace 0 6 6
%%humdrum-veritas 2479766249
%%humdrum-veritas-data 2271899558
%%linebreak <none>
%%barnumbers 0
L: 1/16
M: 2/4
N: Derived from op76n6-01.krn
Q: "Allegretto---Allegro"
V: 1
V: 2
V: 3
V: 4 clef=alto
V: 5 clef=alto
V: 6 clef=bass
K: Eb
[V:1]z7 B [I:setbarnb1]|
[V:2]z7 z |
[V:3]z7 z |
[V:4]z7 z |
[V:5]z7 z |
[V:6]z7 z |
[V:1]G4 A4 |
[V:2]E8- |
[V:3]z8 |
[V:4]B,4 C4 |
[V:5]z8 |
[V:6]E,4 C,4 |
[V:1]B2z4 zc |
[V:2]E2z6 |
[V:3]z8 |
[V:4]B,2z6 |
[V:5]z8 |
[V:6]G,,2z6 |
[V:1]F4 G4 |
[V:2]D4 =E4 |
[V:3]z8 |
[V:4]B,8 |
[V:5]z8 |
[V:6]A,4 G,4 |
[V:1]A2z4 zB |
[V:2]F2z6 |
[V:3]z8 |
[V:4]C2z6 |
[V:5]z8 |
[V:6]F,2z6 |
[V:1]E4 F4 |
[V:2]E4 [D4B,4] |
[V:3]z8 |
[V:4]B,4 A,4 |
[V:5]z8 |
[V:6]G,4 F,4 |
[V:1]G2z4 zE |
[V:2][B,2E2]z6 |
[V:3]z8 |
[V:4]G,2z6 |
[V:5]z8 |
[V:6]E,2z6 |
[V:1]A4 =A4 |
[V:2]E8 |
[V:3]z8 |
[V:4]E,4 _G,4 |
[V:5]z8 |
[V:6]C,4 _C,4 |
[V:1]B2z4 zB |
[V:2]D2z4 zz |
[V:3]z7 z |
[V:4]B,2z4 zz |
[V:5]z7 z |
[V:6]B,,2z4 zz |
[V:1]e4 _d4 |
[V:2]E4 F4 |
[V:3]z8 |
[V:4]B,4 A,4 |
[V:5]z8 |
[V:6]G,4 F,4 |
[V:1]c2z4 zb |
[V:2]G2z4 zg |
[V:3]z8 |
[V:4]G,2z4 z=E |
[V:5]z8 |
[V:6]=E,2z6 |
[V:1]a4 =e4 |
[V:2]f4 _d4 |
[V:3]z8 |
[V:4]F4 G4 |
[V:5]z8 |
[V:6]z8 |
[V:1]f2z4 zb |
[V:2]c2z4 zg |
[V:3]z8 |
[V:4]A2z4 zC |
[V:5]z8 |
[V:6]z7 =E, |
[V:1]a2>=e2 f3a |
[V:2]f2>B2 c3f |
[V:3]z8 |
[V:4]A2>G2 F3B, |
[V:5]z8 |
[V:6]F,2>G,2 A,3D, |
[V:1]g2>d2 e3d |
[V:2]e2>A2 B3B |
[V:3]z8 |
[V:4]G2>F2 E3E |
[V:5]z8 |
[V:6]E,2>F,2 G,3G,, |
[V:1]c2>B2 A3G |
[V:2]A2>G2 F3E |
[V:3]z8 |
[V:4]E2>=E2 F3C |
[V:5]z8 |
[V:6]A,,7 =A,, |
[V:1]G4 F2zB |
[V:2]E4 D2z2 |
[V:3]z8 |
[V:4]B,6 z2 |
[V:5]z8 |
[V:6]B,,6 z2 |
[V:1]G4 A4 |
[V:2]E8- |
[V:3]z8 |
[V:4]B,4 C4 |
[V:5]z8 |
[V:6]E,4 C,4 |
[V:1]B2z4 zc |
[V:2]E2z6 |
[V:3]z8 |
[V:4]B,2z6 |
[V:5]z8 |
[V:6]G,,2z6 |
[V:1]F4 G4 |
[V:2]D4 E4 |
[V:3]z8 |
[V:4]B,8- |
[V:5]z8 |
[V:6]B,,4 E,,4 |
[V:1]F2z4 zB |
[V:2]D2z6 |
[V:3]z8 |
[V:4]B,2z6 |
[V:5]z8 |
[V:6]B,,2z6 |
[V:1]G4 A3G/A/ |
[V:2]_D4 C4 |
[V:3]z8 |
[V:4]B,4 A,4 |
[V:5]z8 |
[V:6]E,8 |
[V:1]B2z4 ze |
[V:2]G,2z6 |
[V:3]z8 |
[V:4]E,2z6 |
[V:5]z8 |
[V:6]_D,2z6 |
[V:1]A2z4 zc |
[V:2]A,4 z4 |
[V:3]z8 |
[V:4]E,4 z4 |
[V:5]z8 |
[V:6]C,4 z4 |
[V:1]F2z4 z_c |
[V:2]C4 z4 |
[V:3]z8 |
[V:4]F,4 z4 |
[V:5]z8 |
[V:6]A,,4 z4 |
[V:1]D2z4 z_c |
[V:2]_C4 z3D |
[V:3]z8 |
[V:4]A,4 z3A |
[V:5]z8 |
[V:6]F,,4 z4 |
[V:1]E2zB C2zA |
[V:2]B4 A4 |
[V:3]z8 |
[V:4]G4 F4 |
[V:5]z8 |
[V:6]G,,4 A,,4 |
[V:1]B,2zG A,2zF |
[V:2]G4 F4 |
[V:3]z8 |
[V:4]E4 D4 |
[V:5]z8 |
[V:6]B,,4 B,,4 |
[V:1]G,2>B,2 E3E |
[V:2]E8 |
[V:3]z8 |
[V:4]E4 G,4 |
[V:5]z8 |
[V:6]E,8- |
[V:1]F2>G2 A3c |
[V:2]D8 |
[V:3]z8 |
[V:4]A,8 |
[V:5]z8 |
[V:6]E,8- |
[V:1]B2>d2 e3E |
[V:2]E8 |
[V:3]z8 |
[V:4]G,8 |
[V:5]z8 |
[V:6]E,8- |
[V:1]F2>G2 A3c |
[V:2]D8 |
[V:3]z8 |
[V:4]A,8 |
[V:5]z8 |
[V:6]E,8 |
[V:1]B2>G2 E3E |
[V:2]E8 |
[V:3]z8 |
[V:4]G,8 |
[V:5]z8 |
[V:6]E,,8- |
[V:1]GFAG BAcB |
[V:2]D8 |
[V:3]z8 |
[V:4]A,8 |
[V:5]z8 |
[V:6]E,,8- |
[V:1]B2>e2 g2zE |
[V:2]E8 |
[V:3]z8 |
[V:4]G,8 |
[V:5]z8 |
[V:6]E,,8- |
[V:1]F2>G2 A3D |
[V:2]D8 |
[V:3]z8 |
[V:4]A,8 |
[V:5]z8 |
[V:6]E,,8- |
[V:1]E2z4 zz |
[V:2]E2z4 zB |
[V:3]z7 z |
[V:4]G,2z4 zz |
[V:5]z7 z |
[V:6]E,,2z4 zz |
[V:1]z2b4 c'2- |
[V:2]G4 A4 |
[V:3]z8 |
[V:4]z8 |
[V:5]z8 |
[V:6]z8 |
[V:1]c'2e2 d2z2 |
[V:2]B2z4 zc |
[V:3]z8 |
[V:4]z8 |
[V:5]z8 |
[V:6]z8 |
[V:1]z2a4 =e2- |
[V:2]F4 G4 |
[V:3]z8 |
[V:4]z8 |
[V:5]z8 |
[V:6]z8 |
[V:1]e2g2 f2^f2 |
[V:2]A2z4 zB |
[V:3]z8 |
[V:4]z8 |
[V:5]z8 |
[V:6]z8 |
[V:1]g2g4 d2- |
[V:2]E4 F4 |
[V:3]z8 |
[V:4]z8 |
[V:5]z8 |
[V:6]z8 |
[V:1]d2f2 e2b2 |
[V:2]G2z4 zE |
[V:3]z8 |
[V:4]z8 |
[V:5]z8 |
[V:6]z8 |
[V:1]c2f4 e2- |
[V:2]A4 =A4 |
[V:3]z8 |
[V:4]z8 |
[V:5]z8 |
[V:6]z8 |
[V:1]e2d2 B2zz |
[V:2]B2z4 zB |
[V:3]z7 z |
[V:4]z7 z |
[V:5]z7 z |
[V:6]z7 z |
[V:1]GBAG FAGF |
[V:2]e4 _d4 |
[V:3]z8 |
[V:4]z8 |
[V:5]z8 |
[V:6]z8 |
[V:1]=EGBc _dBGE |
[V:2]c2z4 zb |
[V:3]z8 |
[V:4]z8 |
[V:5]z8 |
[V:6]z8 |
[V:1]FAGF GBAG |
[V:2]a4 =e4 |
[V:3]z8 |
[V:4]z8 |
[V:5]z8 |
[V:6]z8 |
[V:1]ABcB AGF=E |
[V:2]f2z4 zb |
[V:3]z8 |
[V:4]z8 |
[V:5]z8 |
[V:6]z8 |
[V:1]F=EFG AGAD |
[V:2]a2>=e2 f3a |
[V:3]z8 |
[V:4]z8 |
[V:5]z8 |
[V:6]z8 |
[V:1]EDEF G^FGG, |
[V:2]g2>d2 e3d |
[V:3]z8 |
[V:4]z8 |
[V:5]z8 |
[V:6]z8 |
[V:1]A,CE=E FD_E=A, |
[V:2]c2>B2 A3G |
[V:3]z8 |
[V:4]z8 |
[V:5]z8 |
[V:6]z8 |
[V:1]B,EGE B,2z2 |
[V:2]G4 F2zB |
[V:3]z8 |
[V:4]z8 |
[V:5]z8 |
[V:6]z8 |
[V:1]e8- |
[V:2]G4 A4 |
[V:3]z8 |
[V:4]B,4 E4 |
[V:5]z8 |
[V:6]E,4 C,4 |
[V:1]e8- |
[V:2]B2z4 zc |
[V:3]z8 |
[V:4]E,2z6 |
[V:5]z8 |
[V:6]G,,2z4 zA,, |
[V:1]e2d4 c2- |
[V:2]F4 G4 |
[V:3]z8 |
[V:4]z8 |
[V:5]z8 |
[V:6]B,,4 E,,4 |
[V:1]c2_c2 B2A2 |
[V:2]F4 z4 |
[V:3]z8 |
[V:4]z8 |
[V:5]z8 |
[V:6]D,,4 z4 |
[V:1]G4 A3G/A/ |
[V:2]_D4 C4 |
[V:3]z8 |
[V:4]B,4 A,4 |
[V:5]z8 |
[V:6]E,8 |
[V:1]B2z6 |
[V:2]G,2z4 ze |
[V:3]z8 |
[V:4]E,2z4 z_D |
[V:5]z8 |
[V:6]_D,2z4 zG, |
[V:1]z2>e2 c'2z2 |
[V:2]A2z4 zc |
[V:3]z8 |
[V:4]C2z4 zB, |
[V:5]z8 |
[V:6]A,2z4 z=E, |
[V:1]z2>c2 a2z2 |
[V:2]F2z4 z_c |
[V:3]z8 |
[V:4]A,2z4 zF, |
[V:5]z8 |
[V:6]F,2z4 zD, |
[V:1]z2>_c2 a2z2 |
[V:2]D2z4 z_c |
[V:3]z8 |
[V:4]A,2z4 zD |
[V:5]z8 |
[V:6]F,2z4 zF,, |
[V:1]B4 A4 |
[V:2]E2zB C2zA |
[V:3]z8 |
[V:4]E4 F4 |
[V:5]z8 |
[V:6]G,,4 A,,4 |
[V:1]G4 F4 |
[V:2]B,2zG A,2zF |
[V:3]z8 |
[V:4]E4 D4 |
[V:5]z8 |
[V:6]B,,4 B,,4 |
[V:1]E4 z3e |
[V:2]G,2>B,2 E3E |
[V:3]z8 |
[V:4]E4 G4 |
[V:5]z8 |
[V:6]E,8- |
[V:1]d2>e2 f3a |
[V:2]F2>G2 A3c |
[V:3]z8 |
[V:4]A4 D4 |
[V:5]z8 |
[V:6]E,8- |
[V:1]g2>f2 e2z2 |
[V:2]B2>d2 e3E |
[V:3]z8 |
[V:4]E4 G,4 |
[V:5]z8 |
[V:6]E,8- |
[V:1]D8 |
[V:2]F2>G2 A3c |
[V:3]z8 |
[V:4]A,8 |
[V:5]z8 |
[V:6]E,8 |
[V:1]E8 |
[V:2]B2>G2 E3E |
[V:3]z8 |
[V:4]G,8 |
[V:5]z8 |
[V:6]E,,8- |
[V:1][D8A,8] |
[V:2]GFAG BAcB |
[V:3]z8 |
[V:4]F,8 |
[V:5]z8 |
[V:6]E,,8- |
[V:1][G,8E8] |
[V:2]B2>e2 g2zE |
[V:3]z8 |
[V:4]G,8 |
[V:5]z8 |
[V:6]E,,8- |
[V:1][D8A,8] |
[V:2]F2>G2 A3D |
[V:3]z8 |
[V:4]F,8 |
[V:5]z8 |
[V:6]E,,8- |
[V:1][G,4E4] z3B |
[V:2]E4 z3B |
[V:3]z7 z |
[V:4]G,4 z3z |
[V:5]z7 z |
[V:6]E,,4 z3B,, |
[V:1]e2>g2 f3e |
[V:2]E2>B2 A3G |
[V:3]z8 |
[V:4]B,4 C4 |
[V:5]z8 |
[V:6]G,,4 A,,4 |
[V:1]d2>c2 B3e |
[V:2]F2>E2 D2z2 |
[V:3]z8 |
[V:4]D2z6 |
[V:5]z8 |
[V:6]B,,2z4 zC, |
[V:1]a2>g2 f3=e |
[V:2]c2>B2 A3G |
[V:3]z8 |
[V:4]A,4 B,4 |
[V:5]z8 |
[V:6]F,,4 G,,4 |
[V:1]f3c/A/ F2zB |
[V:2]F4 z4 |
[V:3]z8 |
[V:4]C2z6 |
[V:5]z8 |
[V:6]A,,2z4 zB,, |
[V:1]g2>f2 e3d |
[V:2]B2>A2 G3F |
[V:3]z8 |
[V:4]G,4 A,4 |
[V:5]z8 |
[V:6]E,,4 F,,4 |
[V:1]e3B/G/ E3b |
[V:2]E4 z3B, |
[V:3]z8 |
[V:4]B,2z2 E3E |
[V:5]z8 |
[V:6]G,,4 z3E,, |
[V:1]a2>g2 f3e |
[V:2]C4 c4 |
[V:3]z8 |
[V:4]E4 F4 |
[V:5]z8 |
[V:6]A,,4 =A,,4 |
[V:1]d2>c2 B2zB |
[V:2]F4 z3z |
[V:3]z7 z |
[V:4]F4 z3z |
[V:5]z7 z |
[V:6]B,,4 z3B,, |
[V:1]G2>B2 e3G |
[V:2]B,8 |
[V:3]z8 |
[V:4]E4 G,3B, |
[V:5]z8 |
[V:6]E,4 _D,4 |
[V:1]A2>c2 e3=e |
[V:2]C4 z4 |
[V:3]z8 |
[V:4]A,4 z3G |
[V:5]z8 |
[V:6]C,2z4 zB, |
[V:1]f2>a2 g3b |
[V:2]c8- |
[V:3]z8 |
[V:4]A4 B3G |
[V:5]z8 |
[V:6]A,4 =E,4 |
[V:1]a2>g2 f2z=e |
[V:2]c4 z3G |
[V:3]z8 |
[V:4]A4 z3_D |
[V:5]z8 |
[V:6]F,4 z3B, |
[V:1]f2>g2 a3d |
[V:2]A2>_d2 c3F |
[V:3]z8 |
[V:4]C2>B,2 A,3_C |
[V:5]z8 |
[V:6]A,2>=E,2 F,3A, |
[V:1]e2>f2 g3e |
[V:2]G2>_c2 B3B |
[V:3]z8 |
[V:4]B,2>A,2 G,3G, |
[V:5]z8 |
[V:6]G,2>D,2 E,3G,, |
[V:1]c2>B2 A3G |
[V:2]A2>G2 F3E |
[V:3]z8 |
[V:4]A,7 =A, |
[V:5]z8 |
[V:6]A,,7 =A,, |
[V:1]G4 F2zB |
[V:2]E4 D2zB |
[V:3]z8 |
[V:4]B,4 z4 |
[V:5]z8 |
[V:6]B,,4 z3B,, |
[V:1]e2>g2 f3e |
[V:2]E2>B2 A3G |
[V:3]z8 |
[V:4]B,4 C4 |
[V:5]z8 |
[V:6]G,,4 A,,4 |
[V:1]d2>c2 B3B |
[V:2]F2>E2 D2z2 |
[V:3]z8 |
[V:4]D2z6 |
[V:5]z8 |
[V:6]B,,4 z4 |
[V:1]a2>f2 g3e |
[V:2]B8- |
[V:3]z8 |
[V:4]D2>A2 E3G |
[V:5]z8 |
[V:6]D,4 E,4 |
[V:1]d2>c2 B2ze |
[V:2]B4 z4 |
[V:3]z8 |
[V:4]F2>E2 D2z2 |
[V:5]z8 |
[V:6]B,,4 z4 |
[V:1]G2>e2 A3e |
[V:2]E8- |
[V:3]z8 |
[V:4]B,4 A,4 |
[V:5]z8 |
[V:6]_D,4 C,4 |
[V:1]B2>c2 _d2zB |
[V:2]E4 z3G |
[V:3]z8 |
[V:4]_D4 z4 |
[V:5]z8 |
[V:6]G,,4 z3E |
[V:1]c2>_d2 e2zG |
[V:2]A2>B2 c2z=E |
[V:3]z8 |
[V:4]z8 |
[V:5]z8 |
[V:6]A,2z4 zC |
[V:1]A2>B2 c2zF |
[V:2]F2>G2 A2zD |
[V:3]z8 |
[V:4]z8 |
[V:5]z8 |
[V:6]F,2z4 z_C |
[V:1]A2>B2 _c2zc |
[V:2]F2>_G2 A2zA |
[V:3]z8 |
[V:4]z8 |
[V:5]z8 |
[V:6]D,2z4 zD,, |
[V:1]B2zB A2zA |
[V:2]G2zG F2zF |
[V:3]z8 |
[V:4]z8 |
[V:5]z8 |
[V:6]E,,4 A,,4 |
[V:1]G2zG F2zF |
[V:2]E2zE D2zD |
[V:3]z8 |
[V:4]z8 |
[V:5]z8 |
[V:6]B,,4 B,,4 |
[V:1]E4 z3e |
[V:2]E4 z3E |
[V:3]z8 |
[V:4]E,8- |
[V:5]z8 |
[V:6]E,2>G,2 B,3G, |
[V:1]d4 c4 |
[V:2]F2>G2 A3A |
[V:3]z8 |
[V:4]E,8- |
[V:5]z8 |
[V:6]A,2>B,2 C3D |
[V:1]B2>A2 G2zE |
[V:2]G2>F2 E3B, |
[V:3]z8 |
[V:4]E,8- |
[V:5]z8 |
[V:6]E2>F2 G2zG, |
[V:1]F2>G2 A3c |
[V:2]C2>_D2 C3A |
[V:3]z8 |
[V:4]E,8- |
[V:5]z8 |
[V:6]A,2>B,2 C3D |
[V:1]B2>G2 E2ze |
[V:2]G4 z3E |
[V:3]z8 |
[V:4]E,8- |
[V:5]z8 |
[V:6]E4 z3G, |
[V:1]d4 c4 |
[V:2]F2>G2 A3A |
[V:3]z8 |
[V:4]E,8- |
[V:5]z8 |
[V:6]A,2>B,2 C3D |
[V:1]B2>A2 G2zB |
[V:2]G2>F2 E2zB, |
[V:3]z8 |
[V:4]E,8- |
[V:5]z8 |
[V:6]E2>F2 G2zG, |
[V:1]B4 A3F |
[V:2]C2>D2 E3A, |
[V:3]z7 z |
[V:4]E,8- |
[V:5]z8 |
[V:6]A,2>B,2 C3D |
[V:1]E4 z3B |
[V:2]G,4 z3z |
[V:3]z8 |
[V:4]E,4 z3z |
[V:5]z7 z |
[V:6]E4 z3z |
[V:1]G4 A4 |
[V:2]z8 |
[V:3]z8 |
[V:4]z7 A, |
[V:5]z8 |
[V:6]z7 F, |
[V:1]B2z4 zc |
[V:2]z8 |
[V:3]z8 |
[V:4]F,4 G,4 |
[V:5]z8 |
[V:6]D,4 E,4 |
[V:1]F4 G4 |
[V:2]z8 |
[V:3]z8 |
[V:4]A,4 z3G, |
[V:5]z8 |
[V:6]F,4 z3E, |
[V:1]A2z4 zB |
[V:2]z8 |
[V:3]z8 |
[V:4]E,4 F,4 |
[V:5]z8 |
[V:6]C,4 D,4 |
[V:1]E4 F4 |
[V:2]z8 |
[V:3]z8 |
[V:4]G,4 z3C |
[V:5]z8 |
[V:6]E,4 z3A, |
[V:1]G2z4 zE |
[V:2]z8 |
[V:3]z8 |
[V:4]B,2>A,2 G,3F, |
[V:5]z8 |
[V:6]G,2>F,2 E,3D, |
[V:1]A4 =A4 |
[V:2]z8 |
[V:3]z8 |
[V:4]E,2>_G,2 F,3E, |
[V:5]z8 |
[V:6]C,4 _C,4 |
[V:1]B2z4 zB |
[V:2]z7 z |
[V:3]z7 z |
[V:4]D,2z4 zz |
[V:5]z7 z |
[V:6]B,,2z4 zz |
[V:1]egbg _dcdc |
[V:2]E4 F4 |
[V:3]z8 |
[V:4]B,4 A,4 |
[V:5]z8 |
[V:6]G,4 F,4 |
[V:1]_dcf=e ag_d'b |
[V:2]G2z4 zg |
[V:3]z8 |
[V:4]G,2z4 z=E |
[V:5]z8 |
[V:6]=E,4 z4 |
[V:1]ac'af =ebge |
[V:2]f4 _d4 |
[V:3]z8 |
[V:4]F4 G4 |
[V:5]z8 |
[V:6]z8 |
[V:1]fFAc fac'b |
[V:2]c2z4 zg |
[V:3]z8 |
[V:4]A2z4 zC |
[V:5]z8 |
[V:6]z7 =E, |
[V:1]ac'a=e fcfa |
[V:2]f2>B2 c3f |
[V:3]z8 |
[V:4]A2>G2 F3B, |
[V:5]z8 |
[V:6]F,2>G,2 A,3D, |
[V:1]gbgd eBge |
[V:2]e2>A2 B3B |
[V:3]z8 |
[V:4]G2>F2 E3E |
[V:5]z8 |
[V:6]E,2>F,2 G,3G,, |
[V:1]dccB BAAG |
[V:2]BAAG GFFE |
[V:3]z8 |
[V:4]E2>=E2 F3=A, |
[V:5]z8 |
[V:6]A,,7 =A,, |
[V:1]G4 F2z2 |
[V:2]E4 D2zB |
[V:3]z8 |
[V:4]B,4 z4 |
[V:5]z8 |
[V:6]B,,6 z2 |
[V:1]zede zede |
[V:2]G4 A4 |
[V:3]z8 |
[V:4]E8 |
[V:5]B,4 C4 |
[V:6]E,4 C,4 |
[V:1]zec'b agfe |
[V:2]B4 z3c |
[V:3]z8 |
[V:4]E4 z4 |
[V:5]B,4 z4 |
[V:6]G,,4 z4 |
[V:1]edc'b fec'b |
[V:2]F4 G4 |
[V:3]z8 |
[V:4]A4 G3E |
[V:5]z8 |
[V:6]B,,4 E,,4 |
[V:1]edgf edcB |
[V:2]F4 z3B |
[V:3]z8 |
[V:4]B,4 z4 |
[V:5]z8 |
[V:6]B,,4 z4 |
[V:1]zefe zefe |
[V:2]G4 A3G/A/ |
[V:3]z8 |
[V:4]_D4 C4 |
[V:5]z8 |
[V:6]E,8 |
[V:1]zefe fefe |
[V:2]B2z4 ze |
[V:3]z8 |
[V:4]G,4 z4 |
[V:5]z8 |
[V:6]_D,4 z4 |
[V:1]zeac' e'2z2 |
[V:2]A2z4 zc |
[V:3]z8 |
[V:4]E,4 z4 |
[V:5]z8 |
[V:6]C,4 z4 |
[V:1]zcfa c'2z2 |
[V:2]F2z4 z_c |
[V:3]z8 |
[V:4]C4 z4 |
[V:5]z8 |
[V:6]A,,4 z4 |
[V:1]zdfa _c'2z2 |
[V:2]D2z4 z_c |
[V:3]z8 |
[V:4]A4 z4 |
[V:5]z8 |
[V:6]F,,4 z4 |
[V:1]zbB2 zaA2 |
[V:2]E2zB C2zA |
[V:3]z8 |
[V:4]G4 F4 |
[V:5]z8 |
[V:6]G,,4 A,,4 |
[V:1]zgG2 zfF2 |
[V:2]B,2zG A,2zF |
[V:3]z8 |
[V:4]E4 D4 |
[V:5]z8 |
[V:6]B,,4 B,,4 |
[V:1]zeE2 z3E |
[V:2]G,2>B,2 E3E |
[V:3]z8 |
[V:4]E4 G,4 |
[V:5]z8 |
[V:6]E,8- |
[V:1]F2>G2 A3c |
[V:2]D8 |
[V:3]z8 |
[V:4]A,8 |
[V:5]z8 |
[V:6]E,8- |
[V:1]B2>e2 g2zE |
[V:2]E8 |
[V:3]z8 |
[V:4]G,8 |
[V:5]z8 |
[V:6]E,8- |
[V:1]F2>G2 A3c |
[V:2]D8 |
[V:3]z8 |
[V:4]A,8 |
[V:5]z8 |
[V:6]E,8 |
[V:1]B2>G2 E2zE |
[V:2]E8 |
[V:3]z8 |
[V:4]G,8 |
[V:5]z8 |
[V:6]E,,8- |
[V:1]GFAG BAcB |
[V:2]D8 |
[V:3]z8 |
[V:4]A,8 |
[V:5]z8 |
[V:6]E,,8- |
[V:1]Begf edcB |
[V:2]E8 |
[V:3]z8 |
[V:4]G,8 |
[V:5]z8 |
[V:6]E,,8- |
[V:1]AGFE DCB,A, |
[V:2]D8 |
[V:3]z8 |
[V:4]F,8 |
[V:5]z8 |
[V:6]E,,8- |
[V:1]G,2z6 |
[V:2]E2z4 B2 |
[V:3]z8 |
[V:4]G,2z6 |
[V:5]z8 |
[V:6]E,,2z6 |
[V:1]z8 |
[V:2]G4 A4 |
[V:3]z8 |
[V:4]z2E2 E2E2 |
[V:5]z8 |
[V:6]z8 |
[V:1]z8 |
[V:2]B4 z2c2 |
[V:3]z8 |
[V:4]E2DC D2z2 |
[V:5]z8 |
[V:6]z8 |
[V:1]z8 |
[V:2]F4 G4 |
[V:3]z8 |
[V:4]z2_D2 D2D2 |
[V:5]z8 |
[V:6]z8 |
[V:1]z8 |
[V:2]A4 z2c2 |
[V:3]z8 |
[V:4]_D2CB, C2z2 |
[V:5]z8 |
[V:6]z8 |
[V:1]z8 |
[V:2]D4 E2FG |
[V:3]z8 |
[V:4]z2A,2 G,2E2 |
[V:5]z8 |
[V:6]z8 |
[V:1]z8 |
[V:2]AGAG AcBA |
[V:3]z8 |
[V:4]C2F2 C2D2 |
[V:5]z8 |
[V:6]z8 |
[V:1]z8 |
[V:2]GBcB FBcB |
[V:3]z8 |
[V:4]E2E,2 D,2D2 |
[V:5]z8 |
[V:6]z8 |
[V:1]z6 e2 |
[V:2]edcB =AGFc |
[V:3]z8 |
[V:4]C,2E,2 F,2=A,2 |
[V:5]z8 |
[V:6]z8 |
[V:1]d4 e4 |
[V:2]F2B2 B2B2 |
[V:3]z8 |
[V:4]B,4 z4 |
[V:5]z8 |
[V:6]z8 |
[V:1]f4 z2g2 |
[V:2]B2=AG A2z2 |
[V:3]z8 |
[V:4]z8 |
[V:5]z8 |
[V:6]z8 |
[V:1]c4 d4 |
[V:2]z2A2 A2A2 |
[V:3]z8 |
[V:4]z8 |
[V:5]z8 |
[V:6]z8 |
[V:1]e4 z2g2 |
[V:2]A2GF G2z2 |
[V:3]z8 |
[V:4]z8 |
[V:5]z8 |
[V:6]z8 |
[V:1]=A4 B2cd |
[V:2]z2E2 D2B2 |
[V:3]z8 |
[V:4]z8 |
[V:5]z8 |
[V:6]z8 |
[V:1]eded egfe |
[V:2]G2c2 G2=A2 |
[V:3]z8 |
[V:4]z8 |
[V:5]z8 |
[V:6]z8 |
[V:1]dBde fdfg |
[V:2]B2B,C DB,DE |
[V:3]z8 |
[V:4]z8 |
[V:5]z8 |
[V:6]z8 |
[V:1]agfe dcBf |
[V:2]F2A2 B2D2 |
[V:3]z8 |
[V:4]z8 |
[V:5]z8 |
[V:6]z6 B,,2 |
[V:1]g2e2 e2e2 |
[V:2]E2B2 c2c2 |
[V:3]z8 |
[V:4]z8 |
[V:5]z8 |
[V:6]G,,4 A,,4 |
[V:1]e2dc d2z2 |
[V:2]F4 z4 |
[V:3]z8 |
[V:4]z8 |
[V:5]z8 |
[V:6]B,,4 z2C,2 |
[V:1]z2_d2 d2d2 |
[V:2]A3G/A/ B2G2 |
[V:3]z8 |
[V:4]z8 |
[V:5]z8 |
[V:6]F,,4 G,,4 |
[V:1]_d2cB c2z2 |
[V:2]E4 A4- |
[V:3]z8 |
[V:4]z8 |
[V:5]z8 |
[V:6]A,,4 z2C,2 |
[V:1]z2B2 B2B2 |
[V:2]A2GF GFED |
[V:3]z8 |
[V:4]z8 |
[V:5]z8 |
[V:6]D,,4 E,,2F,,G,, |
[V:1]B2E2 A2A2 |
[V:2]C2c2 c2c2 |
[V:3]z8 |
[V:4]z8 |
[V:5]z8 |
[V:6]A,,G,,A,,G,, A,,B,,C,D, |
[V:1]A4 G2B2 |
[V:2]B6 g2- |
[V:3]z8 |
[V:4]z6 c2 |
[V:5]z8 |
[V:6]E,D,E,D, E,2=E,2 |
[V:1]C4 z4 |
[V:2]g2f2 f2f2 |
[V:3]z8 |
[V:4]A4 B4 |
[V:5]z8 |
[V:6]F,4 _D4 |
[V:1]G3^F/G/ c2CD |
[V:2]f2=ed e2z2 |
[V:3]z8 |
[V:4]c4 z2c2 |
[V:5]z8 |
[V:6]C4 z4 |
[V:1]E2c2 c2c2 |
[V:2]z2e2 e2e2 |
[V:3]z8 |
[V:4]G4 =A4 |
[V:5]z8 |
[V:6]z4 F,4 |
[V:1]F3=E/F/ B2B,C |
[V:2]e2dc d2z2 |
[V:3]z8 |
[V:4]B4 z2B2 |
[V:5]z8 |
[V:6]B,4 z4 |
[V:1]_D2B2 B2B2 |
[V:2]z2_d2 d2d2 |
[V:3]z8 |
[V:4]F4 G4 |
[V:5]z8 |
[V:6]z4 E,,4 |
[V:1]B2AG A2z2 |
[V:2]_d2cB c2z2 |
[V:3]z8 |
[V:4]A2E4 c2 |
[V:5]z8 |
[V:6]A,,2A,2 A,2A,2 |
[V:1]z8 |
[V:2]z2E2 e2e2 |
[V:3]z8 |
[V:4]B6 E2 |
[V:5]z8 |
[V:6]A,2G,F, G,2z2 |
[V:1]z8 |
[V:2]e2_dc d2z2 |
[V:3]z8 |
[V:4]F6 _d2 |
[V:5]z8 |
[V:6]z2B,,2 B,2B,2 |
[V:1]z8 |
[V:2]z2F2 f2f2 |
[V:3]z8 |
[V:4]c6 F2 |
[V:5]z8 |
[V:6]B,2A,G, A,2z2 |
[V:1]z8 |
[V:2]f2ed e2z2 |
[V:3]z8 |
[V:4]G6 e2 |
[V:5]z8 |
[V:6]z2C,2 C2C2 |
[V:1]z6 g2 |
[V:2]z2G2 g2g2 |
[V:3]z8 |
[V:4]d6 =B,2 |
[V:5]z8 |
[V:6]C2=B,=A, B,2G,,2 |
[V:1]e4 f4 |
[V:2]g2ed c2C2 |
[V:3]z8 |
[V:4]C2c2 c2c2 |
[V:5]z8 |
[V:6]A,,8 |
[V:1]g4 z2g2 |
[V:2]D3^C/D/ G2G,=A, |
[V:3]z8 |
[V:4]c2=B=A B2z2 |
[V:5]z8 |
[V:6]G,,4 z4 |
[V:1]d4 =e4 |
[V:2]B,2G2 G2G2 |
[V:3]z8 |
[V:4]z2B2 B2B2 |
[V:5]z8 |
[V:6]z4 C,,4 |
[V:1]f4 z2f2 |
[V:2]C3=B,/C/ F2FG |
[V:3]z8 |
[V:4]B2=AG A2z2 |
[V:5]z8 |
[V:6]F,,4 z4 |
[V:1]c4 d4 |
[V:2]A2F2 F2F2 |
[V:3]z8 |
[V:4]z2A2 A2A2 |
[V:5]z8 |
[V:6]z4 B,,4 |
[V:1]e4 z2g2- |
[V:2]F2ED E2ed |
[V:3]z8 |
[V:4]A2GF G2B2 |
[V:5]z8 |
[V:6]E,4 z2E,2 |
[V:1]g2f=e f2_e2 |
[V:2]c8 |
[V:3]z8 |
[V:4]c4 F4 |
[V:5]z8 |
[V:6]A,,4 =A,,4 |
[V:1]d2f2 c'2b2 |
[V:2]F4 z4 |
[V:3]z8 |
[V:4]B4 z2D2 |
[V:5]z8 |
[V:6]B,,8- |
[V:1]g4 a3g/a/ |
[V:2]z6 f2 |
[V:3]z8 |
[V:4]E4 F2A2 |
[V:5]z8 |
[V:6]B,,=A,,B,,A,, B,,2B,,2 |
[V:1]b4 z2c'2 |
[V:2]d4 =e3d/e/ |
[V:3]z8 |
[V:4]F4 G3F/G/ |
[V:5]z8 |
[V:6]B,,8- |
[V:1]f4 g3f/g/ |
[V:2]f4 z2e2 |
[V:3]z8 |
[V:4]A4 z2G2 |
[V:5]z8 |
[V:6]B,,=A,,B,,A,, B,,2B,,2 |
[V:1]a4 z2b2 |
[V:2]c4 d3c/d/ |
[V:3]z8 |
[V:4]E4 F3E/F/ |
[V:5]z8 |
[V:6]B,,8- |
[V:1]e4 f4 |
[V:2]e4 z2d2 |
[V:3]z8 |
[V:4]G4 z2=A2 |
[V:5]z8 |
[V:6]B,,=A,,B,,A,, B,,2B,,2 |
[V:1]_g6 fe |
[V:2]e4 =A4 |
[V:3]z8 |
[V:4]_G8 |
[V:5]z8 |
[V:6]B,,8- |
[V:1]def_g fBcd |
[V:2]B4 z4 |
[V:3]z8 |
[V:4]F4 z4 |
[V:5]z8 |
[V:6]B,,4 z2B,,2 |
[V:1]egbg _dcdc |
[V:2]E4 F4 |
[V:3]z8 |
[V:4]B,4 A,4 |
[V:5]z8 |
[V:6]G,,4 F,,3=E,,/F,,/ |
[V:1]_dcf=e ag_d'b |
[V:2]G2z4 zg |
[V:3]z8 |
[V:4]G,2z4 z=E |
[V:5]z8 |
[V:6]=E,,4 z4 |
[V:1]ac'af =ebge |
[V:2]f4 _d4 |
[V:3]z8 |
[V:4]F4 G3F/G/ |
[V:5]z8 |
[V:6]z8 |
[V:1]fFAc fac'b |
[V:2]c2z4 zg |
[V:3]z8 |
[V:4]A2z4 zC |
[V:5]z8 |
[V:6]z7 =E, |
[V:1]ac'a=e fcfa |
[V:2]f2>B2 c3f |
[V:3]z8 |
[V:4]A2>G2 F3B, |
[V:5]z8 |
[V:6]F,2>G,2 A,3D, |
[V:1]gbgd eBge |
[V:2]e2>A2 B3B |
[V:3]z8 |
[V:4]G2>F2 E3E |
[V:5]z8 |
[V:6]E,2>F,2 G,3G,, |
[V:1]dccB BAAG |
[V:2]BAAG GFFE |
[V:3]z8 |
[V:4]E2>=E2 F3=A, |
[V:5]z8 |
[V:6]A,,7 =A,, |
[V:1]G4 F2z2 |
[V:2]E4 D2z2 |
[V:3]z8 |
[V:4]B,4 z3B |
[V:5]z8 |
[V:6]B,,4 z4 |
[V:1]zede zede |
[V:2]E8 |
[V:3]B,4 C4 |
[V:4]G4 A4 |
[V:5]z8 |
[V:6]E,4 C,4 |
[V:1]zec'b agfe |
[V:2]E4 z4 |
[V:3]B,4 z4 |
[V:4]B4 z3c |
[V:5]z8 |
[V:6]G,,4 z4 |
[V:1]edc'b fec'b |
[V:2]A4 G3E |
[V:3]z8 |
[V:4]F4 G4 |
[V:5]z8 |
[V:6]B,,4 E,,4 |
[V:1]edgf edcB |
[V:2]B,4 z4 |
[V:3]z8 |
[V:4]F4 z3B |
[V:5]z8 |
[V:6]B,,4 z4 |
[V:1]zefe zefe |
[V:2]_D4 C4 |
[V:3]z8 |
[V:4]G4 A3G/A/ |
[V:5]z8 |
[V:6]E,8 |
[V:1]zefe fefe |
[V:2]G,4 z4 |
[V:3]z8 |
[V:4]B4 z3e |
[V:5]z8 |
[V:6]_D,4 z4 |
[V:1]zeac' e'2z2 |
[V:2]E4 z4 |
[V:3]z8 |
[V:4]A2z4 zc |
[V:5]z8 |
[V:6]C,4 z4 |
[V:1]zcfa c'2z2 |
[V:2]c4 z4 |
[V:3]z8 |
[V:4]F2z4 z_c |
[V:5]z8 |
[V:6]A,,4 z4 |
[V:1]zdfa _c'2z2 |
[V:2]A4 z4 |
[V:3]z8 |
[V:4]D2z4 z_c |
[V:5]z8 |
[V:6]F,,4 z4 |
[V:1]zbB2 zaA2 |
[V:2]G4 F4 |
[V:3]z8 |
[V:4]E2zB C2zA |
[V:5]z8 |
[V:6]G,,4 A,,4 |
[V:1]zgG2 zfF2 |
[V:2]E4 D4 |
[V:3]z8 |
[V:4]B,2zG A,2zF |
[V:5]z8 |
[V:6]B,,4 B,,4 |
[V:1]zeE2 z2e2 |
[V:2]E4 e4 |
[V:3]z8 |
[V:4]G,2>B,2 E2E2 |
[V:5]z8 |
[V:6]E,8- |
[V:1]f2>g2 a3c' |
[V:2]d8 |
[V:3]z8 |
[V:4]A8 |
[V:5]z8 |
[V:6]E,8- |
[V:1]b2>e'2 g'2ze |
[V:2]e8 |
[V:3]z8 |
[V:4]G8 |
[V:5]z8 |
[V:6]E,8- |
[V:1]f2>g2 a3c' |
[V:2]d8 |
[V:3]z8 |
[V:4]A8 |
[V:5]z8 |
[V:6]E,8- |
[V:1]b2>g2 e2ze |
[V:2]e8 |
[V:3]z8 |
[V:4]G8 |
[V:5]z8 |
[V:6]E,8 |
[V:1]gfag bac'b |
[V:2][A,8D8] |
[V:3]z8 |
[V:4][F8B,8] |
[V:5]z8 |
[V:6]E,,8- |
[V:1]be'g'f' e'd'c'b |
[V:2][G,8E8] |
[V:3]z8 |
[V:4][E8B,8] |
[V:5]z8 |
[V:6]E,,8- |
[V:1]agfe dc'ba |
[V:2][B,8D8] |
[V:3]z8 |
[V:4][B,8F8] |
[V:5]z8 |
[V:6]E,,8- |
[V:1]g2gf edcB |
[V:2][E4B,4] z4 |
[V:3]z8 |
[V:4][G4B,4] z4 |
[V:5]z8 |
[V:6]E,,4 z4 |
[V:1]AGFE DCB,A, |
[V:2]D8 |
[V:3]z8 |
[V:4]F,8 |
[V:5]z8 |
[V:6]B,,8 |
[V:1]G,B,EG B,DFA |
[V:2]E2z2 A2z2 |
[V:3]z8 |
[V:4]E,2z2 D2z2 |
[V:5]z8 |
[V:6]E,2z2 B,,2z2 |
[V:1]GBde Bdfa |
[V:2]G2z2 d2z2 |
[V:3]z8 |
[V:4]E2z2 A2z2 |
[V:5]z8 |
[V:6]E,2z2 B,2z2 |
[V:1]g2z2 [d2b2]z2 |
[V:2]e2z2 f2z2 |
[V:3]z8 |
[V:4]B2z2 A2z2 |
[V:5]z8 |
[V:6]E,2z2 B,,2z2 |
[V:1][e2g2]z2 [f2B2D2]z2 |
[V:2]g2z2 [f2D2B2]z2 |
[V:3]z8 |
[V:4]G2z2 [A2B,2]z2 |
[V:5]z8 |
[V:6]E,2z2 B,,2z2 |
[V:1][g4B4E4] z4 |]
[V:2][g4B4E4] z4 |]
[V:3]z8 |]
[V:4][G4B,4] z4 |]
[V:5]z8 |]
[V:6]E,,4 z4 |]

